X:1
T:Title
%%score { ( 1 3 ) | 2 }
L:1/8
M:4/4
K:Bb
V:1 treble nm="Grand Piano"
V:3 treble 
V:2 bass 
V:1
 z4 z2[Q:1/4=100] [DF]2 | [DF]2 [DF]>[_D=E] [=DF]2 [Fd][DFB] | [DF]6 z2 | %3
 [B,EG]2 [=B,FG]>[B,FG] [CEG]2 [=Ec][GB] | [FA]6 z2 | [DF]2 [DB]>[Ec] [Fd]2 [Fc][FB] | %6
 z2 [Ge]4 z2 | F2 B2 d2 (3Bcd |[M:8/4] c4 z4 z8 |[M:4/4] [EB]8 | [DB]8 |] %11
V:2
 z4 z2 [B,,B,]2 | [B,,B,]2 [B,,B,]>[B,,B,] [B,,B,]2 [B,,B,]B,, | B,,2 B,,B,, B,,2 B,,2 | %3
 E,2 D,>D, C,2 [C,G,][=E,C] | [F,C]2 F,F, F,2 [F,A,E]2 | %5
 [B,,B,]2 [B,,F,]>[B,,F,] [B,,B,]2 [C,A,][D,_A,] | [E,G,]2 [E,B,]E, E,2 (3[E,B,][E,B,][E,B,] | %7
 [F,B,D]2 [F,DF]2 [F,B,F]2 (3[F,-B,-D][F,B,E][F,B,F] |[M:8/4] .[F,A,F]4 [B,,B,]4 z8 | %9
[M:4/4] [E,G,]8 | [B,,F,]8 |] %11
V:3
 x8 | x8 | B,2 B,B, B,2 [B,DF]2 | x8 | z2 CC C2 G2 | x8 | [EB]2 z B, B,2 (3[EG][FA][GB] | x8 | %8
[M:8/4] z2 E2 [DB]4 z8 |[M:4/4] x8 | x8 |] %11

